static/img/site/external.svg

<svg width="17" height="17" viewBox="0 0 17 17" fill="none" xmlns="http://www.w3.org/2000/svg">
<path d="M14.5 7C14.5 7.19891 14.421 7.38968 14.2803 7.53033C14.1397 7.67098 13.9489 7.75 13.75 7.75C13.5511 7.75 13.3603 7.67098 13.2197 7.53033C13.079 7.38968 13 7.19891 13 7V4.8125L9.28063 8.53187C9.13973 8.67277 8.94863 8.75193 8.74938 8.75193C8.55012 8.75193 8.35902 8.67277 8.21812 8.53187C8.07723 8.39098 7.99807 8.19988 7.99807 8.00063C7.99807 7.80137 8.07723 7.61027 8.21812 7.46938L11.9375 3.75H9.75C9.55109 3.75 9.36032 3.67098 9.21967 3.53033C9.07902 3.38968 9 3.19891 9 3C9 2.80109 9.07902 2.61032 9.21967 2.46967C9.36032 2.32902 9.55109 2.25 9.75 2.25H13.75C13.9489 2.25 14.1397 2.32902 14.2803 2.46967C14.421 2.61032 14.5 2.80109 14.5 3V7ZM11.75 8.5C11.5511 8.5 11.3603 8.57902 11.2197 8.71967C11.079 8.86032 11 9.05109 11 9.25V13.25H3.5V5.75H7.5C7.69891 5.75 7.88968 5.67098 8.03033 5.53033C8.17098 5.38968 8.25 5.19891 8.25 5C8.25 4.80109 8.17098 4.61032 8.03033 4.46967C7.88968 4.32902 7.69891 4.25 7.5 4.25H3.25C2.91848 4.25 2.60054 4.3817 2.36612 4.61612C2.1317 4.85054 2 5.16848 2 5.5V13.5C2 13.8315 2.1317 14.1495 2.36612 14.3839C2.60054 14.6183 2.91848 14.75 3.25 14.75H11.25C11.5815 14.75 11.8995 14.6183 12.1339 14.3839C12.3683 14.1495 12.5 13.8315 12.5 13.5V9.25C12.5 9.05109 12.421 8.86032 12.2803 8.71967C12.1397 8.57902 11.9489 8.5 11.75 8.5Z" fill="#203FDD"/>
</svg>

<svg xmlns="http://www.w3.org/2000/svg" width="17" height="17" fill="none" viewBox="0 0 17 17"><path fill="#203fdd" d="M14.5 7A.75.75 0 1 1 13 7V4.813L9.28 8.532a.751.751 0 1 1-1.062-1.063l3.72-3.719H9.75a.75.75 0 0 1 0-1.5h4a.75.75 0 0 1 .75.75zm-2.75 1.5a.75.75 0 0 0-.75.75v4H3.5v-7.5h4a.75.75 0 0 0 0-1.5H3.25A1.25 1.25 0 0 0 2 5.5v8a1.25 1.25 0 0 0 1.25 1.25h8a1.25 1.25 0 0 0 1.25-1.25V9.25a.75.75 0 0 0-.75-.75"/></svg>
